svg/icon/wabi.svg

<svg height="32" viewBox="0 0 32 32" width="32" xmlns="http://www.w3.org/2000/svg" xmlns:xlink="http://www.w3.org/1999/xlink"><defs><linearGradient id="a" x1="50%" x2="50%" y1="0%" y2="100%"><stop offset="0" stop-color="#fff" stop-opacity=".5"/><stop offset="1" stop-opacity=".5"/></linearGradient><circle id="b" cx="16" cy="15" r="15"/><filter id="c" height="111.7%" width="111.7%" x="-5.8%" y="-4.2%"><feOffset dy=".5" in="SourceAlpha" result="shadowOffsetOuter1"/><feGaussianBlur in="shadowOffsetOuter1" result="shadowBlurOuter1" stdDeviation=".5"/><feComposite in="shadowBlurOuter1" in2="SourceAlpha" operator="out" result="shadowBlurOuter1"/><feColorMatrix in="shadowBlurOuter1" values="0 0 0 0 0   0 0 0 0 0   0 0 0 0 0  0 0 0 0.199473505 0"/></filter><path id="d" d="m21.8895967 6.46777033c-.1071492.43403251-.0882405.9893388.0315145 1.04040145.1197549.05106265.4222939-.23616474.5987749-.56168913.1701782-.29999305.3214476-.38935269.5294431-.31275871.2773274.10850812.2332071.20425059-.3340534.69572857-.472717.40850119-.5672605.5553063-.4412026.68296292.0756348.07659397.1323608.06382831.4033853-.0829768.3403563-.17871927.5294431-.16595361.5294431.03829698 0 .09574247-.1260579.17233644-.5861692.35105571-.3277505.12765662-.6491981.29361023-.7248328.37658703-.1512695.1659536-.4159911.68934575-.7311358 1.46166825-.2710244.6701973-.5294431 1.1616753-.6996212 1.3531602-.1386637.153188-.6050779.2489304-1.5883294.3255244-.4601113.038297-.5168374.0319142-.5420489-.076594-.0378174-.1085081-.1701782-.8361508-.1701782-.8999791 0-.0191485.2332071-.0127657.5231402.0063828.5168374.038297 1.0336747.1787193 1.2731847.3446729.1827839.1276566.2016926.1085081.2836303-.2489304.1008463-.4085012.3151447-.944659.6428952-1.60847346.2458129-.49147799.2521158-.52977497.2269042-.99572163-.0315145-.51700932-.119755-.7404084-.4285968-1.07869844-.1134521-.12127379-.182784-.25531324-.1638753-.30637589.0159595-.03927261.0286104-.07984179.0378174-.12127379 0-.01276566.056726-.02553132.119755-.02553132.0756347 0 .2079955.11489095.3277505.28722739.3340534.47232949.4348997.38296986.4348997-.40211835 0-.35743854.0252116-.51062648.1071492-.59998612.1260579-.14042228.2269042-.14680511.3340534-.01914849.0630289.07659397.0630289.15957078.0063029.37658703zm-5.010801 2.67440619c.0441202.47232949.1323607.6382831.415991.7404084.1134521.04467981.2710244.10850812.3466592.13403948.1827839.0765939.2332071.3510557.4285968 2.1382484.2079955 1.9403806.2521158 2.2148423.4475055 2.8148284.296236.9127449.2710245 1.9722948-.0756347 3.0382276-.1764811.5489234-.3718708.7978539-.775256 1.0148701-.8067705.4276497-1.6387526.114891-2.2879507-.8552993-.4819585-.700262-.6596273-1.5698855-.4916258-2.4063273.0945435-.4467982.1449666-1.1233783.1008464-1.2893319-.0189087-.0829768-.2206013-.33829-.4475055-.5808376-.7059242-.7340256-1.4496657-2.0488888-1.3046992-2.2850535.0441203-.0638283.0756348-.2616961.0756348-.4340325 0-.3510557-.1008464-.491478-.542049-.7404084-.2899331-.1659536-.3088418-.3319072-.0693318-.79147106.1323608-.2680789.2079955-.32552438.8697994-.66381443.6744097-.34467287.9769487-.44041534 1.9791089-.6191346.415991-.07659398.7185299-.07021115.9454341.02553132.2647216.11489096.3403563.26169607.3844766.75955689zm-5.9625381 2.38079598c0 .3255244.1071492.6446659.1827839.5616891.0315145-.0319141.1008463-.2106334.1638753-.3957355.1008463-.3191416.2836302-.5106265.4096881-.4276497.1071492.0702112.0693319.4404154-.0693318.6701973-.1890868.3127587-.1890868.906362.0063029 1.3020975.1953897.3829699.5987749.8042367.775256.8042367.1071492-.0063828.2332071-.1595708.5798663-.7531741l.4412026-.7467912.0693318.4467982c.0693318.5042436.0378174.6574316-.2458129 1.1489096-.3151447.5553063-.6681068.9893388-.8004676.9893388-.1512694 0-.4916257-.3382901-.7815589-.7723226-.1134521-.1787193-.4285968-.5233921-.6933183-.7723225l-.4853229-.453181-.296236.0510626c-.18102189.0336224-.36436689.0528297-.54835184.0574455-.2269042.0063828-.25211578-.0063828-.27102446-.1659536-.01890868-.1404223.01260579-.1851021.14496657-.2170163.14375948-.0249874.29048556-.0271408.43489971-.0063828.17648102.0255313.30884182.0127657.37817362-.038297.1071492-.076594.1008464-.0893596-.0063029-.2170162-.0630289-.076594-.2521157-.1787193-.42859677-.2361648-.4412026-.1404223-.72483285-.3319072-.72483285-.4787123 0-.1914849.23950999-.2361648.43489971-.076594.64919811.5361578.83198201.6127518 1.00216021.4404154.119755-.1212738.0882405-.3510558-.1134521-.7531741-.176481-.3574385-.23951-.6893458-.1449666-.7850882.063029-.0702112.2269042-.0510627.3403563.038297.1323608.1085081.2458129.4595638.2458129.7850882zm11.5279938 5.7509307c-.1575724.1659536-.6113808.6957286-1.0084631 1.1744409-1.1723384 1.4169885-1.2920934 1.5701764-1.2416702 1.6212391.0504232.0510626 1.0462805-.3893527 1.2731847-.5616891.2836302-.2233991.8004675-.7723226.895011-.9574247.0441202-.076594.1071492-.3127587.1512694-.5170093.0756348-.3829699.2836303-.6765801.4727171-.6765801.1260579 0 .1827839.1468051.1323608.3382901-.086137.2157006-.191627.4229467-.3151447.6191346-.1575724.261696-.2647216.4978608-.2521158.5233921.0630289.0957425.296236.0510627.5672605-.1085081.1575723-.0893597.3844765-.3255244.5546547-.568072.3340534-.4723295.5609576-.6765801.7626502-.6765801.1701781 0 .3718708.2170163.3277505.3446729-.0189087.0510627-.3088418.2999931-.6365923.5489235-.5672605.4276497-.7437416.6510487-.6428952.8170023.056726.0957425.5798662-.0319141 1.1345209-.2808445.9454342-.4276497 1.2038529-.453181 1.3551223-.1659536.1260579.2361647-.1827839.3829698-1.3929396.6510487-.3340534.076594-.6996213.1978678-.8130734.2680789l-.2079955.1276567.1449666.1212738c.1260578.1021252.2584186.1212737.8824052.1212737.5609576 0 .7689531.0255314.8634965.0957425.119755.0957425.1134521.1021253-.063029.2616961-.113452.0957424-.2206013.1468051-.2836302.1212738-.2773273-.114891-1.2164586-.2872274-1.5568149-.2872274-.6113808 0-.6618039.2233991-.1071492.4404153.2521158.1021253.3466592.2170163.296236.3510557-.056726.153188-.2079955.1276566-.7563473-.1276566-1.1093094-.5170093-1.311002-.5425406-2.6409127-.3702042-.6302895.0829768-.8130734.0893596-.8824052.0255313-.1386637-.1148909-.1134521-.2233991.0819376-.3957355.1575723-.1340395 1.374031-2.3999445 1.3173049-2.4510071-.0315145-.0319142-1.2605789.4085012-2.149287.7787054-.1134521.0446798-.1134521.038297 0-.1404223.4159911-.6829629 1.6198439-1.4489026 3.0190864-1.927615.7248329-.2489304.7689531-.2553132 1.0714921-.2489304.2016926.0127657.2584186.038297.2710244.1404223.0189087.1595708-.2332071.5553063-.6239865.9701903zm-14.45253678 2.2531394c.23320709.3319072.76895311.8935963.85089074.8935963.08193762 0 .01260578-.5553063-.13866368-1.1361439-.13866368-.529775-.15126946-.7850882-.04412026-.8935964.08193763-.0829768.35926498-.1021253.47271708-.0255313.04412026.0255313.09454341.3893527.13236078.9382762.06933184 1.0021044.11975499 1.1872065.36556787 1.3467773.15757236.1085081.17017815.1085081.24581288.0063828.03781737-.0574454.08193763-.2936102.08824052-.5297749.01890868-.6319003.17017815-.9127449.44120265-.8233852.2079955.0638283.2269042.3255244.0693318.8233852-.1827839.5808376-.2142984 1.0021044-.1323608 1.5701764.119755.7723226.4096881 1.4616683.5546547 1.3148632.0315145-.0255313.0504232-.8872135.0567261-1.9084665.0063029-1.5957077.0189086-1.9148493.1134521-2.2148423.176481-.5489235.2142984-.5744548.9076168-.5744548 1.1408238 0 3.2585963.3063759 3.5422266.5106264.3025389.2170163.23951.2936103-.359265.4850952-1.3046991.4021184-1.9412915.4787123-2.7291533.3255244-.2584186-.0510627-.4916257-.0829768-.5168373-.0702112-.0252116.0127657 0 .1595708.0504232.3255244.1575723.5170093.1134521.8361509-.2584187 1.9722948-.1953897.5808376-.3781737 1.2574177-.4033852 1.4999653-.0252116.2425476-.0945435.4850951-.1323608.5361578-.1638753.1978678-.3466592.1085081-.6428953-.3063759-.3718707-.5106265-.95803989-1.0723156-1.29839619-1.2510349-.14496657-.0765939-.62398654-.2170162-1.05888625-.3191415-.7815589-.1787193-1.03367468-.2999931-.93913126-.453181.03151447-.0574455.17017815-.0638283.47271708-.038297.5546547.0574455.59877496-.0191485.22690419-.3702042-.40658052-.3606296-.87136096-.6477845-1.37403097-.8489165-.47271707-.191485-.5546547-.2553133-.5546547-.4085012 0-.1212738.17648104-.2489304.34665919-.2489304.05672605 0 .30884182.1723364.5546547.3893527.51683734.4404153.87610232.6510487 1.07149204.6191346.35926498-.0510627-.06933183-.8872135-.74374153-1.4489027-.24581288-.2042506-.48532287-.453181-.53574602-.5489234-.08193763-.1595708-.08193763-.1787193.03151447-.2616961.10506915-.0609104.22608517-.0876488.34665919-.076594.19538973.0191485.23950999.0574455.47271708.4659467.13866367.2489304.34035629.5808376.4475055.7340256zm9.03835048-10.95932087c.3214476-.05106265.3907795.21063342.3907795.20425059.1701781.44041534.0693318.98933881.0693318.98933881-.2269042-.04467982-.3970823-.32552438-.3970823-.32552438-.1323608-.31275872-.063029-.86806502-.063029-.86806502zm-4.5443868 1.81910687s.4853229.2680789.6681068.5553063c0 0 .1260579.299993.0315145.5170093 0 0-.5042316-.2361648-.7563474-.6319003 0 .0063828-.1638752-.2042506.0567261-.4404153z"/><filter id="e" height="119.4%" width="117.5%" x="-8.8%" y="-6.9%"><feOffset dy=".5" in="SourceAlpha" result="shadowOffsetOuter1"/><feGaussianBlur in="shadowOffsetOuter1" result="shadowBlurOuter1" stdDeviation=".5"/><feColorMatrix in="shadowBlurOuter1" values="0 0 0 0 0   0 0 0 0 0   0 0 0 0 0  0 0 0 0.204257246 0"/></filter></defs><g fill="none" fill-rule="evenodd"><use fill="#000" filter="url(#c)" xlink:href="#b"/><use fill="#399b32" xlink:href="#b"/><use fill="url(#a)" xlink:href="#b"/><circle cx="16" cy="15" r="14.5" stroke="#000" stroke-opacity=".097"/><g fill-rule="nonzero"><use fill="#000" filter="url(#e)" xlink:href="#d"/><use fill="#fff" fill-rule="evenodd" xlink:href="#d"/></g></g></svg>

<svg xmlns="http://www.w3.org/2000/svg" xmlns:xlink="http://www.w3.org/1999/xlink" width="32" height="32" viewBox="0 0 32 32">
  <defs>
    <linearGradient id="wabi-c" x1="50%" x2="50%" y1="0%" y2="100%">
      <stop offset="0%" stop-color="#FFF" stop-opacity=".5"/>
      <stop offset="100%" stop-opacity=".5"/>
    </linearGradient>
    <circle id="wabi-b" cx="16" cy="15" r="15"/>
    <filter id="wabi-a" width="111.7%" height="111.7%" x="-5.8%" y="-4.2%" filterUnits="objectBoundingBox">
      <feOffset dy=".5" in="SourceAlpha" result="shadowOffsetOuter1"/>
      <feGaussianBlur in="shadowOffsetOuter1" result="shadowBlurOuter1" stdDeviation=".5"/>
      <feComposite in="shadowBlurOuter1" in2="SourceAlpha" operator="out" result="shadowBlurOuter1"/>
      <feColorMatrix in="shadowBlurOuter1" values="0 0 0 0 0   0 0 0 0 0   0 0 0 0 0  0 0 0 0.199473505 0"/>
    </filter>
    <path id="wabi-d" d="M21.8895967,6.46777033 C21.7824475,6.90180284 21.8013562,7.45710913 21.9211112,7.50817178 C22.0408661,7.55923443 22.3434051,7.27200704 22.5198861,6.94648265 C22.6900643,6.6464896 22.8413337,6.55712996 23.0493292,6.63372394 C23.3266566,6.74223206 23.2825363,6.83797453 22.7152758,7.32945251 C22.2425588,7.7379537 22.1480153,7.88475881 22.2740732,8.01241543 C22.349708,8.0890094 22.406434,8.07624374 22.6774585,7.92943863 C23.0178148,7.75071936 23.2069016,7.76348502 23.2069016,7.96773561 C23.2069016,8.06347808 23.0808437,8.14007205 22.6207324,8.31879132 C22.2929819,8.44644794 21.9715343,8.61240155 21.8958996,8.69537835 C21.7446301,8.86133195 21.4799085,9.3847241 21.1647638,10.1570466 C20.8937394,10.8272439 20.6353207,11.3187219 20.4651426,11.5102068 C20.3264789,11.6633948 19.8600647,11.7591372 18.8768132,11.8357312 C18.4167019,11.8740282 18.3599758,11.8676454 18.3347643,11.7591372 C18.2969469,11.6506291 18.1645861,10.9229864 18.1645861,10.8591581 C18.1645861,10.8400096 18.3977932,10.8463924 18.6877263,10.8655409 C19.2045637,10.9038379 19.721401,11.0442602 19.960911,11.2102138 C20.1436949,11.3378704 20.1626036,11.3187219 20.2445413,10.9612834 C20.3453876,10.5527822 20.559686,10.0166244 20.8874365,9.35280994 C21.1332494,8.86133195 21.1395523,8.82303497 21.1143407,8.35708831 C21.0828262,7.84007899 20.9945857,7.61667991 20.6857439,7.27838987 C20.5722918,7.15711608 20.5029599,7.02307663 20.5218686,6.97201398 C20.5378281,6.93274137 20.550479,6.89217219 20.559686,6.85074019 C20.559686,6.83797453 20.616412,6.82520887 20.679441,6.82520887 C20.7550757,6.82520887 20.8874365,6.94009982 21.0071915,7.11243626 C21.3412449,7.58476575 21.4420912,7.49540612 21.4420912,6.71031791 C21.4420912,6.35287937 21.4673028,6.19969143 21.5492404,6.11033179 C21.6752983,5.96990951 21.7761446,5.96352668 21.8832938,6.0911833 C21.9463227,6.16777727 21.9463227,6.25075408 21.8895967,6.46777033 Z M16.8787957,9.14217652 C16.9229159,9.61450601 17.0111564,9.78045962 17.2947867,9.88258492 C17.4082388,9.92726473 17.5658111,9.99109304 17.6414459,10.0166244 C17.8242298,10.0932183 17.874653,10.3676801 18.0700427,12.1548728 C18.2780382,14.0952534 18.3221585,14.3697151 18.5175482,14.9697012 C18.8137842,15.8824461 18.7885727,16.941996 18.4419135,18.0079288 C18.2654324,18.5568522 18.0700427,18.8057827 17.6666575,19.0227989 C16.859887,19.4504486 16.0279049,19.1376899 15.3787068,18.1674996 C14.8967483,17.4672376 14.7190795,16.5976141 14.887081,15.7611723 C14.9816245,15.3143741 15.0320476,14.637794 14.9879274,14.4718404 C14.9690187,14.3888636 14.7673261,14.1335504 14.5404219,13.8910028 C13.8344977,13.1569772 13.0907562,11.842114 13.2357227,11.6059493 C13.279843,11.542121 13.3113575,11.3442532 13.3113575,11.1719168 C13.3113575,10.8208611 13.2105111,10.6804388 12.7693085,10.4315084 C12.4793754,10.2655548 12.4604667,10.0996012 12.6999767,9.64003734 C12.8323375,9.37195844 12.9079722,9.31451296 13.5697761,8.97622291 C14.2441858,8.63155004 14.5467248,8.53580757 15.548885,8.35708831 C15.964876,8.28049433 16.2674149,8.28687716 16.4943191,8.38261963 C16.7590407,8.49751059 16.8346754,8.6443157 16.8787957,9.14217652 Z M10.9162576,11.5229725 C10.9162576,11.8484969 11.0234068,12.1676384 11.0990415,12.0846616 C11.130556,12.0527475 11.1998878,11.8740282 11.2629168,11.6889261 C11.3637631,11.3697845 11.546547,11.1782996 11.6726049,11.2612764 C11.7797541,11.3314876 11.7419368,11.7016918 11.6032731,11.9314737 C11.4141863,12.2442324 11.4141863,12.8378357 11.609576,13.2335712 C11.8049657,13.6165411 12.2083509,14.0378079 12.384832,14.0378079 C12.4919812,14.0314251 12.6180391,13.8782371 12.9646983,13.2846338 L13.4059009,12.5378426 L13.4752327,12.9846408 C13.5445645,13.4888844 13.5130501,13.6420724 13.2294198,14.1335504 C12.9142751,14.6888567 12.561313,15.1228892 12.4289522,15.1228892 C12.2776828,15.1228892 11.9373265,14.7845991 11.6473933,14.3505666 C11.5339412,14.1718473 11.2187965,13.8271745 10.954075,13.5782441 L10.4687521,13.1250631 L10.1725161,13.1761257 C9.99149421,13.2097481 9.80814921,13.2289554 9.62416426,13.2335712 C9.39726006,13.239954 9.37204848,13.2271884 9.3531398,13.0676176 C9.33423112,12.9271953 9.36574559,12.8825155 9.49810637,12.8506013 C9.64186585,12.8256139 9.78859193,12.8234605 9.93300608,12.8442185 C10.1094871,12.8697498 10.2418479,12.8569842 10.3111797,12.8059215 C10.4183289,12.7293275 10.4120261,12.7165619 10.3048768,12.5889053 C10.2418479,12.5123113 10.0527611,12.410186 9.87628003,12.3527405 C9.43507743,12.2123182 9.15144718,12.0208333 9.15144718,11.8740282 C9.15144718,11.6825433 9.39095717,11.6378634 9.58634689,11.7974342 C10.235545,12.333592 10.4183289,12.410186 10.5885071,12.2378496 C10.7082621,12.1165758 10.6767476,11.8867938 10.475055,11.4846755 C10.298574,11.127237 10.235545,10.7953297 10.3300884,10.6995873 C10.3931174,10.6293761 10.5569926,10.6485246 10.6704447,10.7378843 C10.8028055,10.8463924 10.9162576,11.1974481 10.9162576,11.5229725 Z M22.4442514,17.2739032 C22.286679,17.4398568 21.8328706,17.9696318 21.4357883,18.4483441 C20.2634499,19.8653326 20.1436949,20.0185205 20.1941181,20.0695832 C20.2445413,20.1206458 21.2403986,19.6802305 21.4673028,19.5078941 C21.750933,19.284495 22.2677703,18.7355715 22.3623138,18.5504694 C22.406434,18.4738754 22.469463,18.2377107 22.5135832,18.0334601 C22.589218,17.6504902 22.7972135,17.35688 22.9863003,17.35688 C23.1123582,17.35688 23.1690842,17.5036851 23.1186611,17.6951701 C23.0325241,17.9108707 22.9270341,18.1181168 22.8035164,18.3143047 C22.645944,18.5760007 22.5387948,18.8121655 22.5514006,18.8376968 C22.6144295,18.9334393 22.8476366,18.8887595 23.1186611,18.7291887 C23.2762334,18.639829 23.5031376,18.4036643 23.6733158,18.1611167 C24.0073692,17.6887872 24.2342734,17.4845366 24.435966,17.4845366 C24.6061441,17.4845366 24.8078368,17.7015529 24.7637165,17.8292095 C24.7448078,17.8802722 24.4548747,18.1292026 24.1271242,18.378133 C23.5598637,18.8057827 23.3833826,19.0291817 23.484229,19.1951353 C23.540955,19.2908778 24.0640952,19.1632212 24.6187499,18.9142908 C25.5641841,18.4866411 25.8226028,18.4611098 25.9738722,18.7483372 C26.0999301,18.9845019 25.7910883,19.131307 24.5809326,19.3993859 C24.2468792,19.4759799 23.8813113,19.5972537 23.7678592,19.6674648 L23.5598637,19.7951215 L23.7048303,19.9163953 C23.8308881,20.0185205 23.9632489,20.037669 24.5872355,20.037669 C25.1481931,20.037669 25.3561886,20.0632004 25.450732,20.1334115 C25.570487,20.229154 25.5641841,20.2355368 25.387703,20.3951076 C25.274251,20.49085 25.1671017,20.5419127 25.1040728,20.5163814 C24.8267455,20.4014904 23.8876142,20.229154 23.5472579,20.229154 C22.9358771,20.229154 22.885454,20.4525531 23.4401087,20.6695693 C23.6922245,20.7716946 23.7867679,20.8865856 23.7363447,21.020625 C23.6796187,21.173813 23.5283492,21.1482816 22.9799974,20.8929684 C21.870688,20.3759591 21.6689954,20.3504278 20.3390847,20.5227642 C19.7087952,20.605741 19.5260113,20.6121238 19.4566795,20.5482955 C19.3180158,20.4334046 19.3432274,20.3248964 19.5386171,20.15256 C19.6961894,20.0185205 20.9126481,17.7526155 20.855922,17.7015529 C20.8244075,17.6696387 19.5953431,18.1100541 18.706635,18.4802583 C18.5931829,18.5249381 18.5931829,18.5185553 18.706635,18.339836 C19.1226261,17.6568731 20.3264789,16.8909334 21.7257214,16.412221 C22.4505543,16.1632906 22.4946745,16.1569078 22.7972135,16.1632906 C22.9989061,16.1760563 23.0556321,16.2015876 23.0682379,16.3037129 C23.0871466,16.4632837 22.8350308,16.8590192 22.4442514,17.2739032 Z M7.99171462,19.5270426 C8.22492171,19.8589498 8.76066773,20.4206389 8.84260536,20.4206389 C8.92454298,20.4206389 8.85521114,19.8653326 8.70394168,19.284495 C8.565278,18.75472 8.55267222,18.4994068 8.65982142,18.3908986 C8.74175905,18.3079218 9.0190864,18.2887733 9.1325385,18.3653673 C9.17665876,18.3908986 9.22708191,18.75472 9.26489928,19.3036435 C9.33423112,20.3057479 9.38465427,20.49085 9.63046715,20.6504208 C9.78803951,20.7589289 9.8006453,20.7589289 9.87628003,20.6568036 C9.9140974,20.5993582 9.95821766,20.3631934 9.96452055,20.1270287 C9.98342923,19.4951284 10.1346987,19.2142838 10.4057232,19.3036435 C10.6137187,19.3674718 10.6326274,19.6291679 10.475055,20.1270287 C10.2922711,20.7078663 10.2607566,21.1291331 10.3426942,21.6972051 C10.4624492,22.4695277 10.7523823,23.1588734 10.8973489,23.0120683 C10.9288634,22.986537 10.9477721,22.1248548 10.954075,21.1036018 C10.9603779,19.5078941 10.9729836,19.1887525 11.0675271,18.8887595 C11.2440081,18.339836 11.2818255,18.3143047 11.9751439,18.3143047 C13.1159677,18.3143047 15.2337402,18.6206806 15.5173705,18.8249311 C15.8199094,19.0419474 15.7568805,19.1185414 15.1581055,19.3100263 C13.8534064,19.7121447 13.216814,19.7887386 12.4289522,19.6355507 C12.1705336,19.584488 11.9373265,19.5525739 11.9121149,19.5653395 C11.8869033,19.5781052 11.9121149,19.7249103 11.9625381,19.8908639 C12.1201104,20.4078732 12.0759902,20.7270148 11.7041194,21.8631587 C11.5087297,22.4439963 11.3259457,23.1205764 11.3007342,23.363124 C11.2755226,23.6056716 11.2061907,23.8482191 11.1683734,23.8992818 C11.0044981,24.0971496 10.8217142,24.0077899 10.5254781,23.5929059 C10.1536074,23.0822794 9.56743821,22.5205903 9.22708191,22.341871 C9.08211534,22.2652771 8.60309537,22.1248548 8.16819566,22.0227295 C7.38663676,21.8440102 7.13452098,21.7227364 7.2290644,21.5695485 C7.26057887,21.512103 7.39924255,21.5057202 7.70178148,21.5312515 C8.25643618,21.588697 8.30055644,21.512103 7.92868567,21.1610473 C7.52210515,20.8004177 7.05732471,20.5132628 6.5546547,20.3121308 C6.08193763,20.1206458 6,20.0568175 6,19.9036296 C6,19.7823558 6.17648104,19.6546992 6.34665919,19.6546992 C6.40338524,19.6546992 6.65550101,19.8270356 6.90131389,20.0440519 C7.41815123,20.4844672 7.77741621,20.6951006 7.97280593,20.6631865 C8.33207091,20.6121238 7.9034741,19.775973 7.2290644,19.2142838 C6.98325152,19.0100332 6.74374153,18.7611028 6.69331838,18.6653604 C6.61138075,18.5057896 6.61138075,18.4866411 6.72483285,18.4036643 C6.829902,18.3427539 6.95091802,18.3160155 7.07149204,18.3270703 C7.26688177,18.3462188 7.31100203,18.3845158 7.54420912,18.793017 C7.68287279,19.0419474 7.88456541,19.3738546 7.99171462,19.5270426 Z M17.0300651,8.56772173 C17.3515127,8.51665908 17.4208446,8.77835515 17.4208446,8.77197232 C17.5910227,9.21238766 17.4901764,9.76131113 17.4901764,9.76131113 C17.2632722,9.71663131 17.0930941,9.43578675 17.0930941,9.43578675 C16.9607333,9.12302803 17.0300651,8.56772173 17.0300651,8.56772173 Z M12.4856783,10.3868286 C12.4856783,10.3868286 12.9710012,10.6549075 13.1537851,10.9421349 C13.1537851,10.9421349 13.279843,11.2421279 13.1852996,11.4591442 C13.1852996,11.4591442 12.681068,11.2229794 12.4289522,10.8272439 C12.4289522,10.8336267 12.265077,10.6229933 12.4856783,10.3868286 Z"/>
    <filter id="wabi-e" width="117.5%" height="119.4%" x="-8.8%" y="-6.9%" filterUnits="objectBoundingBox">
      <feOffset dy=".5" in="SourceAlpha" result="shadowOffsetOuter1"/>
      <feGaussianBlur in="shadowOffsetOuter1" result="shadowBlurOuter1" stdDeviation=".5"/>
      <feColorMatrix in="shadowBlurOuter1" values="0 0 0 0 0   0 0 0 0 0   0 0 0 0 0  0 0 0 0.204257246 0"/>
    </filter>
  </defs>
  <g fill="none" fill-rule="evenodd">
    <use fill="#000" filter="url(#wabi-a)" xlink:href="#wabi-b"/>
    <use fill="#399B32" xlink:href="#wabi-b"/>
    <use fill="url(#wabi-c)" style="mix-blend-mode:soft-light" xlink:href="#wabi-b"/>
    <circle cx="16" cy="15" r="14.5" stroke="#000" stroke-opacity=".097"/>
    <g fill-rule="nonzero">
      <use fill="#000" filter="url(#wabi-e)" xlink:href="#wabi-d"/>
      <use fill="#FFF" fill-rule="evenodd" xlink:href="#wabi-d"/>
    </g>
  </g>
</svg>
